assets/favicon.svg

<svg xmlns="http://www.w3.org/2000/svg" width="30" height="27" fill="none"><path fill="white" fill-rule="evenodd" d="M18.7283 23.4976L9.79769 18.279V24.1681C10.9827 24.8387 12.3121 25.1594 13.7283 25.1594C15.1734 25.1594 16.4451 24.8678 17.5434 24.2848C17.9769 24.0515 18.3815 23.7891 18.7283 23.4976ZM25 24.8381V14.226L14.6243 20.2609L19.3064 22.9722C19.6243 22.6807 19.8844 22.36 20.1156 22.0101V24.8381H25ZM9.07514 23.7299V13.0887L5 15.4502C5.0578 17.2869 5.43353 18.9195 6.15607 20.3481C6.87861 21.8058 7.86127 22.9136 9.07514 23.7299ZM24.9994 13.3805V5.47978H20.115V8.22026C19.7393 7.69549 19.2769 7.22902 18.7277 6.82087V17.0248L24.9994 13.3805ZM13.1792 9.85318L8.3526 7.05439C7.48555 7.8124 6.7341 8.74533 6.15607 9.88234C5.43353 11.2526 5.0578 12.8269 5.0289 14.6053L13.1792 9.85318ZM17.5428 6.034C16.4445 5.45092 15.2017 5.15937 13.7855 5.15937C12.1382 5.15937 10.6353 5.56753 9.30578 6.38385C9.28194 6.39988 9.25592 6.41591 9.22892 6.43254C9.1577 6.47642 9.07963 6.52451 9.01676 6.58792L18.0052 11.8357V6.32554C17.8992 6.23997 17.7776 6.17011 17.6633 6.10442C17.6218 6.08058 17.5813 6.05729 17.5428 6.034Z" clip-rule="evenodd"/></svg>

<svg xmlns="http://www.w3.org/2000/svg" width="30" height="27" fill="none" viewBox="0 0 30 27"><path fill="#fff" fill-rule="evenodd" d="m18.728 23.498-8.93-5.219v5.89c1.185.67 2.514.99 3.93.99q2.168 0 3.815-.874a7 7 0 0 0 1.185-.787M25 24.838V14.226l-10.376 6.035 4.682 2.711c.318-.291.578-.612.81-.962v2.828zM9.075 23.73V13.089L5 15.45c.058 1.837.434 3.47 1.156 4.898.723 1.458 1.705 2.566 2.92 3.382M25 13.38v-7.9h-4.884v2.74a6.3 6.3 0 0 0-1.387-1.4v10.205zM13.18 9.854l-4.827-2.8a9.4 9.4 0 0 0-2.197 2.828q-1.083 2.056-1.127 4.723zm4.364-3.819c-1.098-.583-2.341-.875-3.757-.875-1.648 0-3.15.409-4.48 1.225l-.077.049c-.071.043-.15.092-.212.155l8.988 5.248v-5.51a2.6 2.6 0 0 0-.342-.222z" clip-rule="evenodd"/></svg>
